X:1
T:Green Bed (Jackson)
M:2/4
L:1/8
K:C
 G| A/2 A3/2 AA|A-dd-G| A/2 A3/2 cG| A3 G| A/2 A3/2 AA| A d2 G| AA cG|\
 A4| FF FD| C2 A,A,| D/2 D3/2 FG| A3 G| AA dA| c2 A G/2G/2|F-D DC|\
 D3||
